X: 2337
T: Bag Of Spuds, The
R: reel
M: 4/4
K: Adorian
dB|:^GAEA BAEA|ABcd egdB|~G3D AGDB|GB~B2 GBdB|
^GAEA BAEA|ABcd egdB|G2B/c/d e2ge|1 dBGA BAA^G:|2 dBGA B~A3||
a2ea ageg|a2bg ageg|fgdc ~B3d|~g3z bgeg|
a2ea ageg|ac'bg ageg|d3e ~g3e|dBGA B~A3|
a2ea ageg|a2bg agef|gedc ~B3d|~g3a bgeg|
a2ea ageg|a2bg ageg|d3e ~g3e|dBGA BAA^G||

